favicon.svg

<svg width="32" height="32" viewBox="0 0 32 32" fill="none" xmlns="http://www.w3.org/2000/svg">
<path d="M27.9421 14.8325C27.2961 8.22472 21.4071 3.39756 14.801 4.06096C8.21956 4.7219 3.4142 10.5843 4.05781 17.1676C4.70141 23.7507 10.5512 28.5711 17.1362 27.9457C23.7455 27.317 28.5881 21.4403 27.9421 14.8325ZM18.9973 6.83114C19.1438 6.83073 19.2532 6.86052 19.3895 6.89757L19.419 6.9056C19.4723 7.17304 19.4189 7.29733 19.279 7.52497C19.0342 7.92344 18.7617 8.30495 18.4891 8.68652C18.008 9.36003 17.527 10.0337 17.1973 10.801C16.4826 12.4648 16.6492 14.4053 16.8175 16.3662C16.9648 18.0824 17.1134 19.8141 16.6737 21.3894C16.1447 23.2845 14.8168 24.5241 13.1541 25.4486C13.0619 25.4641 12.9602 25.4562 12.8625 25.4487C12.842 25.4471 12.8218 25.4456 12.8017 25.4442C12.7891 25.4434 12.7766 25.4426 12.7642 25.442L12.7482 25.4116C12.6534 25.2314 12.6477 25.2205 12.7163 25.0154C12.8053 24.7495 12.9825 24.4773 13.1493 24.2208C13.2131 24.1229 13.2754 24.0272 13.3307 23.9351C13.9087 22.9721 14.4753 21.9319 14.6525 20.8081C14.874 19.4047 14.7561 17.9605 14.6382 16.5164C14.4886 14.684 14.339 12.8508 14.8828 11.1017C15.5508 8.95254 17.1147 7.83153 18.9973 6.83114Z" fill="#0B0803"/>
</svg>

<svg xmlns="http://www.w3.org/2000/svg" aria-hidden="true" style="position:absolute;width:0;height:0;overflow:hidden">
  <defs>
    <symbol id="icon-favicon" viewBox="0 0 32 32">
      <path d="M27.942 14.832C27.296 8.224 21.407 3.397 14.801 4.06 8.22 4.721 3.414 10.583 4.058 17.167s6.493 11.403 13.078 10.778c6.609-.629 11.452-6.505 10.806-13.113m-8.945-8.001c.146 0 .256.029.392.066l.029.008c.053.267 0 .392-.14.619-.245.398-.517.78-.79 1.162-.481.674-.962 1.347-1.292 2.114-.715 1.664-.548 3.604-.38 5.565.147 1.716.296 3.448-.144 5.023-.529 1.895-1.857 3.135-3.52 4.059a1.2 1.2 0 0 1-.292 0l-.061-.005-.037-.002-.016-.03c-.095-.18-.101-.191-.032-.396.089-.266.266-.538.433-.795q.097-.148.181-.286c.578-.963 1.145-2.003 1.322-3.127.222-1.403.104-2.848-.014-4.292-.15-1.832-.299-3.666.245-5.415.668-2.149 2.232-3.27 4.114-4.271z"/>
    </symbol>
  </defs>
</svg>
